X:1
T:Ciacona in F Minor
T:Ciacona in F Minor, P. 43
T:Johann Pachelbel
C:Johann Pachelbel
%%score { ( 1 4 6 ) | ( 2 3 5 ) }
L:1/8
Q:1/4=70
M:3/4
K:Ab
V:1 treble nm="Harpsichord" snm="Hch."
V:4 treble 
V:6 treble 
V:2 bass 
V:3 bass 
V:5 bass 
V:1
"^( )" FG A3 A | Gg c3 E | F2- F/F/G/A/ G>F | =E3 c E2 | FG A3 A | Gg c3 c | f2- f/F/G/A/ G>F | %7
 cF- F/=E/F/G/ F>E ||"^Var. 1" F2 A2 B2 | c/>c/B/A/ G2 A2 | B/>B/A/G/ F2 G2 | A/G/A/B/ A3 G | %12
 F2 A2 B2 | c/>c/B/A/ G2 A2 | B/>B/A/G/ F2 G2 | A/G/A/B/ A3 G ||"^Var. 2" F2 c2 f2 | g6 | f6- | %19
 f3 g =e>f | f2 c2 f2 | g6 | f6- | f3 g =e>f ||"^Var. 3" fc d4- | dB c4- | cA B4 | AB/A/ G3 F | %28
 Fc d4- | dB c4- | cA B4 | AB/A/ G3 F ||"^Var. 4" FCFGAB | cGc=dec | f=efgab | c'b/a/ gba>g | %36
 a CFGAB | cGc=dec | f=efgab | c'b/a/ gba>g ||"^Var. 5" ag/a/ fF/G/ AB/A/ | Ge/f/ gf/g/ e=d/c/ | %42
 fF/G/ AA/G/ FG/F/ | =E/G/E/C/ F/G/F/G/ F/G/F/E/ | Fa/g/ fF/G/ AB/A/ | Ge/f/ gf/g/ e=d/c/ | %46
 fF/G/ AA/G/ FG/F/ | =E/G/E/C/ F/G/F/G/ F/G/F/E/ ||"^Var. 6" F/G/A/B/ A/B/A/B/ A/G/A/B/ | %49
 G/G/A/B/ c/E/F/G/ C/c/d/e/ | f/=e/f/g/ f/F/G/A/ G/A/G/F/ | =E/G/E/C/ F/C/F/c/ E/B/A/G/ | %52
 A/G/A/B/ c/c/=d/=e/ f/F/A/F/ | c/B/c/=d/ c/G/c/d/ e/c/e/g/ | f/c/d/e/ d/A/B/c/ B/f/g/f/ | %55
 =e/B/c/G/ A/c/f/A/ G/f/e/B/ ||"^Var. 7" f2 d4- | d2 c4- | c2 B4 | A2 G4 | A2 d4- | d2 c4- | %62
 c2 B4 | A2 G4 ||"^Var. 8" F=EFG A2 | GAGFGA | F2 GAGF | =EGCFFE | F=EFG A2 | GAGFGA | F2 GAGF | %71
 =EGCFFE ||"^Var. 9" Fc/>B/ A/>G/F c>c | c2 z2 z2 | z c/>B/ A/>G/F B>f | =e2 z2 z2 | f2 z2 z2 | %77
 z g/>f/ e/>=d/c g>g | f2 z2 z/ A/G/F/ | z/ G/A/B/ A>B G/cB/ || %80
"^Var. 10" A/c/B/d/ A/c/G/B/ A/c/F/=d/ | G/e/A/f/ B/g/B/g/ c/a/B/g/ | A/f/G/=e/ A/f/A/f/ B/g/A/f/ | %83
 G/=e/A/f/ G/e/F/=d/ G/e/B/g/ | A/g/f/=e/ f/c/B/c/ A/c/A/F/ | G/c/G/c/ E/G/E/G/ C/c/G/B/ | %86
 F/f/g/a/ g/a/g/a/ g/a/g/f/ | =e/G/A/B/ A/B/A/B/ A/B/A/G/ ||"^Var. 11" A2 z2 z2 | %89
 =E/c/G/c/ C/c/G/c/ E/B/A/G/ | A2 z2 z2 | =E/c/G/c/ C/c/G/c/ E/B/A/G/ | A2 z2 z2 | %93
 =E/c/G/c/ C/c/G/c/ E/B/A/G/ |"^See note below." A2 z2 z2 | z/ c/B/A/ G/A/B/c/ A>G || %96
"^Var. 12" z cBc d2 | z BAB c2- | ccfA B>B | c3 G c2 | z cBc d2 | z BAB c2- | ccfA B>B | c3 G c2 || %104
"^Var. 13" cdcBc=d | efgBcB | Af=efgf | =eGABGc | cdcBc=d | efgBcB | Af=efgf | =eGABGc || %112
"^Var. 14" A>GA>Bc>=d | e>fg>fg>a | f>=ef>ga>b | c'3/2c'c'c'c'c'/ | %116
 z/ a/ z/ b/ z/ c'/ z/ b/ z/ c'/ z/ a/ | z/ b/ z/ c'/ z/ b/ z/ a/ z/ g/ z/ a/ | %118
 z/ f/ z/ =e/ z/ f/ z/ a/ z/ g/ z/ f/ | z/ =e/ z/ f/ z/ e/ z/ g/ z/ f/ z/ e/ || %120
"^Var. 15" fc/B/ AA,/B,/ CC/=D/ | EE/F/ Gc/=d/ ed/c/ | ff/=e/ fg/a/ gf/g/ | =ee/=d/ cc/d/ ed/e/ | %124
 fA/G/ FF/G/ AB/A/ | GG/F/ EE/F/ GA/G/ | FF/G/ AA/G/ FB | =E/c/F/c/ E/c/=D/c/ E/B/A/G/ || %128
"^Var. 16" A/G/A/B/ c/C/F/C/ A/F/A/c/ | G/c/G/c/ E/G/E/G/ C/c/G/c/ | F/A/G/A/ G/A/G/A/ G/A/G/F/ | %131
 =E/F/E/F/ E/F/E/F/ E/F/G/E/ | F/A/G/F/ =E/B/A/G/ A/G/A/B/ | c/B/c/d/ c/d/c/d/ e/c/d/e/ | %134
 A/G/A/B/ A/G/A/B/ A/G/A/B/ | A/G/A/B/ A3 G ||"^Var. 17" F2 z2 z2 | z6 | z2 F2 F2- | z2 B2 B2- | %140
 B2 A4 | G2 c2 c2- | c2 B4 | A2 A3 G ||"^Var. 18" A2 C2 C2 | z2 E2 E2 | z2 B2 B2 | z2 f2 f2 | %148
 f2 =e>f g2 | z2 f2 g2- | gc f4- | f2 f3 =e ||"^Var. 19" f/c/B/c/ A/c/B/c/ A/c/A/F/ | c2 z2 z2 | %154
 z/ c/B/c/ A/B/G/A/ F/c/B/>c/ | c2 z2 z2 | z/ c/=d/=e/ f/A/B/c/ F/f/e/f/ | g2 x4 | %158
 z/ g/f/e/ f/F/G/A/ G/A/G/F/ | =E2- E/C/F- F/G/F/E/ ||"^Var. 20" z/ CFCFCF/ | z/ CGCGCG/ | %162
 z/ CFCFB,F/ | z/ C=ECECE/ | z/ CFCFCF/ | z/ CGCGCG/ | z/ FAFAFB/ | z/ =EcFcEc/ || %168
"^Var. 21" A z/ CFAcf/ | z/ G,CEGce/ | z/[I:staff +1] F,=E,F,A,G,F,/ | %171
[I:staff -1] z/[I:staff +1] =E,G,[I:staff -1]C=EGc/ | z/ cAcAcA/ | z/ cGcGcG/ | z/ cFcFBF/ | %175
 z/ AFGFG=E/ ||"^Thema da capo" FG A3 A | Gg c3 E | F2- F/F/G/A/ PG>F | =E3 c E2 | FG A3 A | %181
 Gg c3 c | f2- f/F/G/A/ PG3 | cF- F/=E/F/G/ PF>E | F6 |] %185
V:2
 A,3 B, C2- | C3 G, C2- | CA, B,4 | z C G,4 | A,B, CD C2- | C3 G, C2- | CA, B,4 | %7
 A,2 G,2- [G,B,]2 || A,2 C2 D2 | E2 B,2 C2 | D2 A,2 B,2 | C6 | A,2 C2 D2 | E2 B,2 C2 | D2 A,2 B,2 | %15
 C6 || F,6 | E,6 | z2 A,2 B,3/2A,/4B,/4 | C6 | F,6 | E,6 | z2 A,2 B,3/2A,/4B,/4 | C6 || %24
 F,2- F,F,E,D, | E,2- E,E,D,C, | D,2- D,D,C,B,, | C,6 | F,2- F,F,E,D, | E,2- E,E,D,C, | %30
 D,2- D,D,C,B,, | C,6 || A,6 | G,6 | A,3 G, F,2- | G,6 | z2 A,4 | G,6 | A,3 G, F,2- | G,6 || %40
 F,G, A,B, CD | EG, B,G, CG, | A,G, F,G, A,B, | CG, A,B, A,G, | F,G, A,B, CD | EG, B,G, CG, | %46
 A,G, F,G, A,B, | CG, A,B, A,G, || A,B, C2 D2- | D2 C4- | C4 B,2- | B,2 A,2 G,2 | F,G, A,4 | G,6 | %54
 A,2 F,4 | G,2 C4 || F,, F,/=E,/ F,/G,/F,/G,/ F,/G,/F,/G,/ | E,E,/D,/ E,/F,/E,/F,/ E,/F,/E,/F,/ | %58
 D,D,/C,/ D,/E,/D,/E,/ D,/E,/D,/E,/ | C,/D,/C,/B,,/ C,/C/B,/C/ G,/C/B,/C/ | %60
 F,F,/=E,/ F,/G,/F,/G,/ F,/G,/F,/G,/ | E,E,/D,/ E,/F,/E,/F,/ E,/F,/E,/F,/ | %62
 D,D,/C,/ D,/E,/D,/E,/ D,/E,/D,/E,/ | C,/D,/C,/B,,/ C,/C/B,/C/ G,/C/B,/C/ || %64
 A,/C/G,/C/ A,/C/=E,/C/ F,/C/F,/C/ | E,/C/F,/C/ E,/C/D,/C/ E,/C/C,/C/ | %66
 D,/C/B,/A,/ B,/C/B,/C/ D,/B,/D,/B,/ | C,/B,/A,/G,/ A,/G,/A,/B,/ C,/B,/A,/G,/ | %68
 A,/C/G,/C/ A,/C/=E,/C/ F,/C/F,/C/ | E,/C/F,/C/ E,/C/D,/C/ E,/C/C,/C/ | %70
 D,/C/B,/A,/ B,/C/B,/C/ D,/B,/D,/B,/ | C,/B,/A,/G,/ A,/G,/A,/B,/ C,/B,/A,/G,/ || A,2 x4 | %73
 E,2 z2 z2 | D,2 z2 z2 | C,2 z2 z2 | z C/>B,/ A,/>G,/F, C>C | C2 x4 | z C/>B,/ A,/>G,/F, B,2 | %79
 C2 x4 || F,6 | E,3 D, C,2 | D,3 C, B,,2 | C,6 | C2 x4 | C2 x4 | C2 x2 B,2 | C2 x4 || %88
 F,,/F,/G,,/F,/ A,,/F,/G,,/F,/ A,,/F,/F,,/F,/ | C,2 z2 z2 | %90
 F,,/F,/G,,/F,/ A,,/F,/G,,/F,/ A,,/F,/F,,/F,/ | C,2 z2 z2 | %92
 F,,/F,/G,,/F,/ A,,/F,/G,,/F,/ A,,/F,/F,,/F,/ | C,2 z2 z2 | %94
 F,,/F,/G,,/F,/ A,,/F,/G,,/F,/ A,,/F,/F,,/F,/ | D,C, B,,D, C,C,, || F,,3 F, B,,2 | E,4 A,,2 | D,6 | %99
 C,6 | F,,3 F, B,,2 | E,4 A,,2 | D,6 | C,6 || F,6 | E,4 C,2 | D,4 B,,2 | C,6 | F,6 | E,4 C,2 | %110
 D,4 B,,2 | C,6 ||[K:treble] F=EFGAB | cdedec | dcd_efd | c=d=edec | %116
"_The notes in the measure after m. 94 were copied from m. 91 and inserted since there seems to be a measure missing in this variation.\nThe added measure is excluded from the measure count for compatibility with other editions." fgagaf | %117
 gagfec | dcdcBd | cdcBAG ||[K:bass] F,6 | E,6 | D,6 | C,6 | F,6 | x B,/A,/ G,G,/A,/ B,C | %126
 DA,/G,/ F,F,/G,/ A,G,/F,/ | G,A,G,F,G,C || F,2 A,2 F,2 | E,2 C,2 E,2 | D,2 B,,2 D,2 | C,2 C2 B,2 | %132
 A,2 G,2 F,2 | E,2 D,2 C,2 | D,2 C,2 B,,2 | C,2 C,,4 || x2 A,2 F,2- | G,2 C4- | C2 B,2 F,G, | %139
 A,2 G,F, G,2 | F,6 | C,4 C2 | F,2 G,2 F,E, | A,2 E,4 || A,,3 B,,C,A,, | E,3 F,G,E, | F,6 | C6 | %148
 C,2 C2 B,2 | A,3 G,/F,/ =E,2 | F,3 _E,D,C, | B,,2 C,2 C,,2 || F,,2 z2 z2 | %153
 E,/G,/F,/G,/ E,/G,/F,/G,/ E,/G,/E,/C,/ | F,2 x4 | C,/G,/F,/G,/ =E,/F,/=D,/E,/ C,/C/B,/>A,/ | %156
 A,2 x4 | E,/G,/A,/B,/ C/E,/F,/G,/ C,/E,/D,/C,/ | F,2 x2 B,2- | B,/B,/A,/G,/ A,>F, z B, || %160
 F,A,F,A,F,A, | E,G,E,G,E,G, | D,A,D,A,D,F, | C,G,C,G,C,G, | F,A,F,A,F,A, | E,G,E,G,E,G, | %166
 D,F,D,F,D,F, | C,G,C,A,C,G, || F,A,[I:staff -1]CFAc |[I:staff +1] E,G,[I:staff -1]CEGc | %170
[I:staff +1] D,C,D,C,B,,D, | C,E,G,C=EG |[K:treble] FAFAFA | EGEGEG | DFDFDF | CFCFC=E || %176
[K:bass] A,3 B, C2- | C3 G, C2- | CA, B,4 | z C G,4 | A,B, CD C2- | C3 G, C2- | CA, B,4 x | %183
 A,2 G,2- [G,B,]2 | F,6 |] %185
V:3
 F,6 | E,6 | D,6 | C,6 | F,6 | E,6 | D,6 | C,6 || F,6 | E,6 | D,6 | C,6 | F,6 | E,6 | D,6 | C,6 || %16
 x6 | x6 | D,6 | C,6 | x6 | x6 | D,6 | C,6 || x6 | x6 | x6 | x6 | x6 | x6 | x6 | x6 || F,6 | E,6 | %34
 D,6 | F,4 =E,2 | F,6 | E,6 | D,6 | F,4 =E,2 || F,,2 F,4 | E,6 | D,6 | C,6 | F,,2 F,4 | E,6 | D,6 | %47
 C,6 || F,6 | E,6 | D,6 | C,6 | F,,2 F,4 | E,6 | D,6 | C,6 || x6 | x6 | x6 | x6 | x6 | x6 | x6 | %63
 x6 || x6 | x6 | x6 | x6 | x6 | x6 | x6 | x6 || F,2 z2 z2 | x6 | x6 | x6 | F,2 z2 z2 | E,2 z2 z2 | %78
 D,2 z2 z2 | C,2 z2 z2 || x6 | x6 | x6 | x6 | F,2 z2 z2 | E,2 z2 z2 | D,2 z2 D,2 | C,2 z2 z2 || %88
 x6 | x6 | x6 | x6 | x6 | x6 | x6 | x6 || x6 | x6 | x6 | x6 | x6 | x6 | x6 | x6 || x6 | x6 | x6 | %107
 x6 | x6 | x6 | x6 | x6 ||[K:treble] x6 | x6 | x6 | x6 | x6 | x6 | x6 | x6 ||[K:bass] x6 | x6 | %122
 x6 | x6 | x6 | D,6 | D,6 | C,6 || x6 | x6 | x6 | x6 | x6 | x6 | x6 | x6 || F,,2 z2 A,2 | %137
 F,2 E,2 E,2 | D,6 | C,6 | x6 | x6 | x6 | x6 || x6 | x6 | B,,3 C,D,B,, | F,3 G,A,F, | x6 | x6 | %150
 x6 | x6 || x6 | x6 | D,2 z2 z2 | x6 | F,2 z2 z2 | x6 | D,2 z2 D,2 | C,6 || x6 | x6 | x6 | x6 | %164
 x6 | x6 | x6 | x6 || x6 | x6 | x6 | x6 |[K:treble] x6 | x6 | x6 | x6 ||[K:bass] F,6 | E,6 | D,6 | %179
 C,6 | F,6 | E,6 | D,6 x | C,6 | F,,6 |] %185
V:4
 x6 | x6 | x6 | x6 | x6 | x6 | x6 | x6 || x6 | x6 | x6 | F4 =E2 | F2 x4 | x6 | x6 | F4 =E2 || %16
 F2 z2 z2 | z2 G2 c2 | z2 F2 G2 | A2 G4 | A2 z2 z2 | z2 G2 c2 | z2 F2 G2 | A2 G4 || A4 B2 | G4 A2 | %26
 F4 G2 | F2 =E4 | F4 B2 | G4 A2 | F4 G2 | F2 E4 || x6 | x6 | x6 | x6 | x6 | x6 | x6 | x6 || x6 | %41
 x6 | x6 | x6 | x6 | x6 | x6 | x6 || x6 | x6 | x6 | x6 | x6 | x6 | x6 | x6 || A2 A4 | G6 | F6- | %59
 F4 =E2 | F2 A4 | G6 | F6- | F4 =E2 || x6 | x6 | x6 | x6 | x6 | x6 | x6 | x6 || x6 | %73
 z G/>F/ E/>=D/C G>G | F2 z2 z2 | z G/>F/ =E/>=D/C G>G | A2 x4 | x6 | x6 | =E2 z/ E/F- FE || F x5 | %81
 x6 | x6 | x6 | x6 | x6 | x6 | x6 || x6 | x6 | x6 | x6 | x6 | x6 | x6 | F4 =E2 || A4- AB/A/ | %97
 G4- GA/G/ | F6 | FF =E4 | A4- AB/A/ | G4- GA/G/ | F6 | FF =E4 || ABAGAF | GABGAG | FAGABA | %107
 G=EFE/=D/ E2 | ABAGAF | GABGAG | FAGABA | G=EFE/=D/ E2 || x6 | x6 | x6 | x6 | x6 | x6 | x6 | x6 || %120
 AA/G/ FF,/G,/ A,A,/B,/ | CC/=D/ EE/F/ GE | AA/G/ AF BA/B/ | cG/F/ =EE/F/ GF/G/ | %124
 AC/B,/ A,A,/B,/ CD | E x5 | x6 | x6 || x6 | x6 | x6 | x6 | x6 | x6 | F2 F2 F2- | F4 =E2 || F2 x4 | %137
 x6 | x6 | F4 =E2- | EC F2 F2- | F2 E4 | D2 D2 D2 | C4 B,2 || C2 A,2 A,2 | B,6 | E2 D4 | B2 A4 | %148
 G6 | c4- cB | A6 | G4 B2 || A x5 | G2 x4 | x6 | =E2 x4 | x6 | c2 z2 z2 | x6 | x6 || x6 | x6 | x6 | %163
 x6 | x6 | x6 | x6 | x6 || F x5 | x6 | x6 | x6 | x6 | x6 | x6 | x6 || x6 | x6 | x6 | x6 | x6 | x6 | %182
 x7 | x6 | [A,C]6 |] %185
V:5
 x6 | x6 | x6 | x6 | x6 | x6 | x6 | x6 || x6 | x6 | x6 | x6 | x6 | x6 | x6 | x6 || x6 | x6 | x6 | %19
 x6 | x6 | x6 | x6 | x6 || x6 | x6 | x6 | x6 | x6 | x6 | x6 | x6 || x6 | x6 | x6 | C,6 | x6 | x6 | %38
 x6 | C,6 || x6 | x6 | x6 | x6 | x6 | x6 | x6 | x6 || x6 | x6 | x6 | x6 | x6 | x6 | x6 | x6 || x6 | %57
 x6 | x6 | x6 | x6 | x6 | x6 | x6 || x6 | x6 | x6 | x6 | x6 | x6 | x6 | x6 || x6 | x6 | x6 | x6 | %76
 x6 | x6 | x6 | x6 || x6 | x6 | x6 | x6 | x6 | x6 | x6 | x6 || x6 | x6 | x6 | x6 | x6 | x6 | x6 | %95
 x6 || x6 | x6 | x6 | x6 | x6 | x6 | x6 | x6 || x6 | x6 | x6 | x6 | x6 | x6 | x6 | x6 || %112
[K:treble] x6 | x6 | x6 | x6 | x6 | x6 | x6 | x6 ||[K:bass] x6 | x6 | x6 | x6 | x6 | x6 | x6 | %127
 x6 || x6 | x6 | x6 | x6 | x6 | x6 | x6 | x6 || x6 | x6 | x6 | x6 | x6 | x6 | x6 | x6 || x6 | x6 | %146
 x6 | x6 | x6 | x6 | x6 | x6 || x6 | x6 | x6 | x6 | x6 | x6 | x6 | x4 G,2 || x6 | x6 | x6 | x6 | %164
 x6 | x6 | x6 | x6 || x6 | x6 | x6 | x6 |[K:treble] x6 | x6 | x6 | x6 ||[K:bass] x6 | x6 | x6 | %179
 x6 | x6 | x6 | x7 | x6 | x6 |] %185
V:6
 x6 | x6 | x6 | x6 | x6 | x6 | x6 | x6 || x6 | x6 | x6 | x6 | x6 | x6 | x6 | x6 || x6 | x6 | x6 | %19
 x6 | x6 | x6 | x6 | x6 || x6 | x6 | x6 | x6 | x6 | x6 | x6 | x6 || x6 | x6 | x6 | x6 | x6 | x6 | %38
 x6 | x6 || x6 | x6 | x6 | x6 | x6 | x6 | x6 | x6 || x6 | x6 | x6 | x6 | x6 | x6 | x6 | x6 || x6 | %57
 x6 | x6 | x6 | x6 | x6 | x6 | x6 || x6 | x6 | x6 | x6 | x6 | x6 | x6 | x6 || x6 | x6 | x6 | x6 | %76
 x6 | x6 | x6 | x6 || x6 | x6 | x6 | x6 | x6 | x6 | x6 | x6 || x6 | x6 | x6 | x6 | x6 | x6 | x6 | %95
 x6 || x6 | x6 | x6 | x6 | x6 | x6 | x6 | x6 || x6 | x6 | x6 | x6 | x6 | x6 | x6 | x6 || x6 | x6 | %114
 x6 | x6 | x6 | x6 | x6 | x6 || x6 | x6 | x6 | x6 | x6 | x6 | x6 | x6 || x6 | x6 | x6 | x6 | x6 | %133
 x6 | x6 | x6 || x6 | x6 | x6 | x6 | x6 | x6 | x6 | x6 || x6 | A,2 G,4 | x6 | x6 | x6 | x6 | x6 | %151
 x6 || x6 | x6 | x6 | x6 | x6 | x6 | x6 | x6 || x6 | x6 | x6 | x6 | x6 | x6 | x6 | x6 || x6 | x6 | %170
 x6 | x6 | x6 | x6 | x6 | x6 || x6 | x6 | x6 | x6 | x6 | x6 | x7 | x6 | x6 |] %185

